X:1
T:Neemt my in der hand
T:André Vierendeels 
T:Canon ad voces aequales (S or T)
T:Source : melody by A.Valerius---Nederlandtsche Gedenck-Clanck---1625. Editor André Vierendeels (10/04/18)
T:Neemt my in der hand
T:©
T:©
T:©
C:André Vierendeels
Z:©
%%score [ 1 2 3 ] 4
L:1/8
Q:1/4=120
M:4/4
K:F
V:1 treble nm="Soprano 1" snm="S 1"
V:2 treble nm="Soprano 2" snm="S 2"
V:3 treble nm="Soprano 3" snm="S 3"
V:4 treble nm="MusicXML Part"
V:1
 G3 F G2 G2 | D8 | G3 A B2 B2 | A4 A4 | B3 A G2 G2 | ^F8 | G3 A B2 c2 | d4 d4 | G3 F G2 G2 | D8 | %10
w: Neemt my in der|hand,|hoort in't kort ver-|kla- ren,|wat ons hier in't|land,|al is we- der-|va- ren,|neemt my in der|hand,|
 G3 A B2 B2 | A4 A4 | B3 A G2 G2 | ^F8 | G3 A B2 c2 | d4 d4 | z8 | z8 | z8 | z8 | z8 | z8 |] %22
w: hoort in't kort ver-|kla- ren,|wat ons hier in't|land,|al is we- der-|va- ren.|||||||
V:2
 z8 | z8 | G3 F G2 G2 | D8 | G3 A B2 B2 | A4 A4 | B3 A G2 G2 | ^F8 | G3 A B2 c2 | d4 d4 | %10
w: ||Neemt my in der|hand,|hoort in't kort ver|kla- ren,|wat ons hier in't|land,|al is we- der|va- ren,|
 G3 F G2 G2 | D8 | G3 A B2 B2 | A4 A4 | B3 A G2 G2 | ^F8 | G3 A B2 B2 | A4 A4 | z8 | z8 | z8 | %21
w: neemt my in der|hand,|hoort in't kort ver-|kla- ren,|wat ons hier in't|land,|al is we- der-|va- ren.||||
 z8 |] %22
w: |
V:3
 z8 | z8 | z8 | z8 | G3 F G2 G2 | D8 | G3 A B2 B2 | A4 A4 | B3 A G2 G2 | ^F8 | G3 A B2 B2 | d4 d4 | %12
w: ||||Neemt my in der|hand,|hooet in't kort ver-|kla- ren,|wat ons hier in't|land,|al is we- der-|va- ren,|
 G3 F G2 G2 | D8 | G3 A B2 B2 | A4 A4 | B3 A G2 G2 | ^F8 | G3 A B2 c2 | d4 d4 | z8 | z8 |] %22
w: neemt my in der|hand,|hoort in't kort ver-|kla- ren,|wat ons hier in't|land,|al is we- der-|va- ren,|||
V:4
"^Soprano 4" z8 | z8 | z8 | z8 | z8 | z8 | G3 F G2 G2 | D8 | G3 A B2 B2 |"^S 4" A4 A4 | %10
w: ||||||Neemt my in der|hand,|hoort in't kort ver-|kla- ren,|
 B3 A G2 G2 | ^F8 | G3 A B2 c2 | d4 d4 |"^S 4" G3 F G2 A2 | D8 | G3 A B2 B2 | A4 A4 | B3 A G2 G2 | %19
w: wat ons hier in't|land,|al is we- der-|va- ren,|neemt my in der|hand,|hoort in't kort ver-|kla- ren,|wat ons hier in't|
 ^F8 | G3 A B2 c2 | d4 !fermata!d4 |] %22
w: land,|al is we- der-|va- ren.|

